X:1
T:Ere zij God
T:Ere zij God
%%score 1 [ { 2 | 3 } 4 5 ]
L:1/8
M:4/4
K:D
V:1 treble nm="Voice" snm="Vo."
V:2 treble-8 nm="Tenor" snm="T."
V:3 treble-8 
V:4 bass nm="Baritone" snm="Bar."
V:5 bass nm="Bass" snm="B."
V:1
 A4 A2 G2 | F4 z4 | A4 A2 G2 | F4 z2 AA | B2 B2 z2 AA | B2 B2 z2 AA | (B4 c4) | d4 z4 | A4 G2 F2 | %9
w: E- re zij|god,|E- re zij|God In de|ho- ge, in de|ho- ge, in de|ho- *|ge|Vre- de op|
 F4 E4 | (E2 F2) G2 A2 | G4 F2 EE | (F2 G2) A2 F2 | (B4 A2) G2 | (F4 E4) | D4 z4 | A4 A2 A2 | %17
w: aar- de,|vre- * de op|aar- de In de|men- * sen een|wel- * be-|ha- *|gen|E- re zij|
 A4 B2 c2 | d4 A4 | d4 d2 d2 | c4 d2 B2 | (A4 ^G4) | A4 z4 | (D3 C) D2 E2 | (F3 E) D4 | %25
w: God in de|ho- ge,|E- re zij|God in de|ho- *|ge|Vre- * de op|aar- * de,|
 (F3 E) F2 G2 | (A3 G) F4 | E4 E2 E2 | E4 E4 | (A3 ^G) A2 B2 | (c3 B) A2 AA | A4 A2 A2 | A4 A2 A2 | %33
w: vre- * de op|aar- * de|Vre- de op|aar- de,|vre- * de op|aar- * de In de|men- sen, de|men- sen een|
 A4 d4 | c2 A2 z2 dd | c2 A2 z ddd | c2 A2 z AAB | (c4 B4) | A4 z4 | A4 A2 G2 | F4 z4 | A4 A2 G2 | %42
w: wel- be-|ha- gen In de|men- sen, een wel- be-|ha- gen, een wel- be-|ha- *|gen.|E- re zij|god,|E- re zij|
 F4 z2 AA | B2 B2 z2 AA | B2 B2 z2 AA | (B4 c4) | d4 z4 | A4 G2 F2 | F4 E4 | (E2 F2) G2 A2 | %50
w: God In de|ho- ge, in de|ho- ge, in de|ho- *|ge|Vre- de op|aar- de,|vre- * de op|
 G4 F2 EE | (F2 G2) A2 F2 | (B4 A2) G2 | (F4 E4) | D4 z4 | (E2 F2 G2 A2) | F4 z4 | (F4 E4) | D8 | %59
w: aar- de In de|men- * sen een|wel- * be-|ha- *|gen.|A- * * *|men!|A- *|men.|
 z8 | z8 |] %61
w: ||
V:2
 z8 | z2 A2 B2 c2 | d4 z4 | z2 f2 e2 d2 | d2 d2 d2 d2 | d4 d2 d2 | (d2 g4 e2) | f2 d2 c2 B2 | %8
w: |E- re zij|god,|E- re zij|God E- re zij|God In de|ho- * *|ge, Vre- de op|
 A4 A2 z2 | z4 A2 A2 | z8 | z2 A2 A2 A2 | d4 d2 d2 | d4 d2 e2 | f2 d2 (A2 c2) | d2 D2 F2 G2 | %16
w: aar- de,|Vre- de||vre- de op|aar- de In|men- sen een|wel- be- ha- *|gen E- re zij|
 A4 z4 | z8 | z2 A2 A2 A2 | B2 B2 B2 B2 | e4 f2 d2 | (c2 e4 d2) | c4 z4 | z8 | z4 A2 A2 | z8 | %26
w: God||E- re zij|God E- re zij|God in de|ho- * *|ge||Vre- de||
 z4 d2 d2 | z8 | z2 e2 e2 e2 | f4 c2 d2 | e4 e2 z2 | z8 | z8 | z8 | z2 AA A4 | A2 A2 A4 | %36
w: Vre- de||E- re zij|God vreed' op|aar- de,||||In de men-|sen, de men-|
 A2 A2 c2 ^d2 | (e4 d4) | c4 z4 | z8 | z2 A2 B2 c2 | d4 z4 | z2 f2 e2 d2 | d2 d2 d2 d2 | d4 d2 d2 | %45
w: sen een wel- be-|ha- *|gen||E- re zij|god,|E- re zij|God E- re zij|God In de|
 (d2 g4 e2) | f2 d2 c2 B2 | A4 A2 z2 | z4 A2 A2 | z8 | z2 A2 A2 A2 | d4 d2 d2 | d4 d2 e2 | %53
w: ho- * *|ge, Vre- de op|aar- de,|Vre- de||vre- de op|aar- de In|men- sen een|
 f2 d2 (A2 c2) | d2 (A2 G2) F2 | z8 | z2 (A2 B2) A2 | z8 | z2 (D2 F2) A2 | (B4 d2 e2) | %60
w: wel- be- ha- *|gen. A- * men!||A- * men.||A- * men!|A- * *|
 !fermata!f8 |] %61
w: men.|
V:3
 z8 | z2 A2 B2 c2 | d4 z4 | z2 f2 e2 d2 | d2 d2 d2 d2 | d4 d2 d2 | (d2 g4 e2) | f2 d2 c2 B2 | %8
w: |E- re zij|god,|E- re zij|God E- re zij|God In de|ho- * *|ge, Vre- de op|
 A4 A2 z2 | z4 A2 A2 | z8 | z2 A2 A2 A2 | d4 d2 d2 | d4 d2 e2 | f2 d2 (A2 c2) | d2 D2 F2 G2 | %16
w: aar- de,|Vre- de||vre- de op|aar- de In|men- sen een|wel- be- ha- *|gen E- re zij|
 A4 z4 | z8 | z2 A2 A2 A2 | B2 B2 B2 B2 | e4 f2 d2 | (c2 e4 d2) | c4 z4 | z8 | z4 A2 A2 | z8 | %26
w: God||E- re zij|God E- re zij|God in de|ho- * *|ge||Vre- de||
 z4 A2 A2 | z2 A2 B2 B2 | c4 c4 | z2 c2 c2 d2 | d4 c2 z2 | z8 | z8 | z8 | z2 AA A4 | A2 A2 A4 | %36
w: Vre- de|Vre- de op|aar- de,|vre- de op|aar- de||||In de men-|sen, de men-|
 A2 A2 c2 ^d2 | (e4 d4) | c4 z4 | z8 | z2 A2 B2 c2 | d4 z4 | z2 f2 e2 d2 | d2 d2 d2 d2 | d4 d2 d2 | %45
w: sen een wel- be-|ha- *|gen||E- re zij|god,|E- re zij|God E- re zij|God In de|
 (d2 g4 e2) | f2 d2 c2 B2 | A4 A2 z2 | z4 A2 A2 | z8 | z2 A2 A2 A2 | d4 d2 d2 | d4 d2 e2 | %53
w: ho- * *|ge, Vre- de op|aar- de,|Vre- de||vre- de op|aar- de In|men- sen een|
 f2 d2 (A2 c2) | d2 (A2 G2) F2 | z8 | z2 (A2 B2) A2 | z8 | z2 (D2 F2) A2 | (B4 d4) | !fermata!d8 |] %61
w: wel- be- ha- *|gen. A- * men!||A- * men.||A- * men!|A- *|men.|
V:4
 z8 | A,4 A,2 G,2 | F,4 z4 | A,4 A,2 F,2 | G,4 z2 F,F, | G,2 G,2 z2 F,F, | (E,4 A,4) | D,4 z4 | %8
w: |E- re zij|god,|E- re zij|God In de|ho- ge, in de|ho- *|ge,|
 z8 | z2 A,,2 C,2 E,2 | A,4 A,,4 | z8 | z2 E,E, F,2 A,2 | z2 G,2 A,2 B,2 | (A,2 F,2 G,4) | %15
w: |vre- de op|aar- de||In de men- sen|een wel- be-|ha- * *|
 F,2 D,2 F,2 G,2 | A,4 z4 | z8 | z2 A,2 A,2 A,2 | B,2 B,2 B,2 B,2 | A,4 z2 F,F, | ((A,2 C2) B,4) | %22
w: gen E- re zij|God||E- re zij|God E- re zij|God in de|ho- * *|
 A,4 z4 | z8 | z4 F,2 F,2 | z8 | z4 F,2 F,2 | z2 A,2 A,2 ^G,2 | A,4 A,4 | (A,3 ^G,) A,2 B,2 | %30
w: ge||Vre- de||Vre- de|Vre- de op|aar- de,|vre- * de op|
 ^G,4 A,2 z2 | z8 | z8 | z8 | z2 A,A, A,4 | A,2 A,2 A,4 | A,2 A,2 F,2 ^E,2 | (E,2 A,4 ^G,2) | %38
w: aar- de||||In de men-|sen, de men-|sen een wel- be-|ha- * *|
 A,2 A,2 A,2 A,2 | A,4 z4 | A,4 A,2 G,2 | F,4 z4 | A,4 A,2 F,2 | G,4 z2 F,F, | G,2 G,2 z2 F,F, | %45
w: gen E- re zij|god,|E- re zij|god,|E- re zij|God In de|ho- ge, in de|
 (E,4 A,4) | D,4 z4 | z8 | z2 A,,2 C,2 E,2 | A,4 A,,4 | z8 | z2 E,E, F,2 A,2 | z2 G,2 A,2 B,2 | %53
w: ho- *|ge,||vre- de op|aar- de||In de men- sen|een wel- be-|
 (A,2 F,2 G,4) | F,2 (A,2 G,2) F,2 | z8 | z2 (A,2 B,2) A,2 | z8 | z2 (D,2 F,2) A,2 | %59
w: ha- * *|gen. A- * men!||A- * men.||A- * men!|
 (B,2 G,2 B,4) | !fermata!A,8 |] %61
w: A- * *|men.|
V:5
 z8 | A,4 A,2 G,2 | F,4 z4 | A,4 A,2 F,2 | G,4 z2 F,F, | G,2 G,2 z2 F,F, | (E,4 A,4) | D,4 z4 | %8
w: |E- re zij|god,|E- re zij|God In de|ho- ge, in de|ho- *|ge,|
 z8 | z2 A,,2 C,2 E,2 | A,4 A,,4 | z8 | z2 E,E, F,2 A,2 | z2 G,2 A,2 B,2 | (A,2 F,2 G,4) | %15
w: |vre- de op|aar- de||In de men- sen|een wel- be-|ha- * *|
 F,2 D,2 F,2 G,2 | A,4 z4 | z8 | z2 A,2 A,2 A,2 | B,2 B,2 B,2 B,2 | A,4 z2 F,F, | E,8 | A,,4 z4 | %23
w: gen E- re zij|God||E- re zij|God E- re zij|God in de|ho-|ge|
 z8 | z4 D,2 D,2 | z8 | z4 D,2 D,2 | z2 E,2 E,2 E,2 | E,4 E,4 | z2 F,2 ^E,2 E,2 | E,4 A,,2 z2 | %31
w: |Vre- de||Vre- de|Vre- de op|aar- de,|vre- de op|aar- de|
 z8 | z8 | z8 | z2 A,A, A,4 | A,2 A,2 A,4 | A,2 A,2 F,2 ^E,2 | (E,2 A,4 ^G,2) | A,2 A,2 A,2 A,2 | %39
w: |||In de men-|sen, de men-|sen een wel- be-|ha- * *|gen E- re zij|
 A,4 z4 | A,4 A,2 G,2 | F,4 z4 | A,4 A,2 F,2 | G,4 z2 F,F, | G,2 G,2 z2 F,F, | (E,4 A,4) | D,4 z4 | %47
w: god,|E- re zij|god,|E- re zij|God In de|ho- ge, in de|ho- *|ge,|
 z8 | z2 A,,2 C,2 E,2 | A,4 A,,4 | z8 | z2 E,E, F,2 A,2 | z2 G,2 A,2 B,2 | (A,2 F,2 G,4) | %54
w: |vre- de op|aar- de||In de men- sen|een wel- be-|ha- * *|
 F,2 (A,2 G,2) F,2 | z8 | z2 (A,2 B,2) A,2 | z8 | z2 (D,2 F,2) A,2 | (B,2 G,6) | !fermata!D,8 |] %61
w: gen. A- * men!||A- * men.||A- * men!|A- *|men.|

